X:1
T:I've given up on love
C:Les Kettley
Z:All Rights Reserved
L:1/8
Q:1/4=100
M:4/4
K:F
V:1 treble nm="MusicXML Part"
%%MIDI program 18
%%MIDI control 7 102
%%MIDI control 10 64
V:1
"_Chorus""_Intro" G2"Bb" A"^I've given up on love"B AG"Bbm"AB | %1
w: I've giv- en up, I've giv- en|
w: |
w: |
w: |
w: |
 AG"^Lyric and Music by Les Kettley""F"AB AF"Dm" A2- | A2"Bb" AB AG"Bbm"AG | %3
w: up, I've giv- en up on love,|_ giv- en up un- til the|
w: ||
w: ||
w: ||
w: ||
"Bb" FE"C9"DF"C7" EG"F" F2- | F4 G2"Bb7" _A2- | A4 z4 |[K:Eb] G2"Ab" GA GF G2- | G6"Abm" F2- | %8
w: time I fall in love a- gain.|_ _ _||I've giv- en up on love,|_ since|
w: |||Now love is not for me,|_ since|
w: |||We were get- ing on well,|_ did|
w: |||Why did you have to go,|_ with-|
w: |||||
 FG"Eb" F4"Cm" E2- | E8 | E2"Ab" EF EC E2- |"^Verses" E4"Abm" _D2 D2 | =B,2 B,4"Eb" _B,2- | %13
w: _ the last time,||I've giv- en up on love|_ un- til|the next time,|
w: _ the last time,||I've giv- en up on love,|_ now you're|no long- er|
w: ||why did you have to leave|_ I still|do not know,|
w: * out saying goodbye,||was it some- thing I said|_ I wish|I knew why,|
w: * you have to|go,|_ _ _ _ _ _|||
 B,6 G2 |"Ab" GAGF G4- | G2"Abm" F2 FF"Eb" F2- | FE"Cm" E6- | E2 F2"Ab" GFEC |1"^2. 3." E6 CC || %19
w: _ I've|had en- ough heart ache,|_ and en- ough of|_ the pain,|_ I've giv- en up on|love, un- til|
w: mine, I|thought our love would last,|_ un- til the end|_ of time,|_ I've giv- en up on|love, un- til|
w: _ you|did not seen un- happy|_ in fact we had|_ such fun,|_ I've giv- en up on|love, un- til|
w: _ there's|no one else for me,|_ will you come back|_ my love,|_ un- til that day ar-||
w: ||||||
 C"Bb7"DEF D"Eb" E3-"_© Les Kettley\n" |[K:F] E3"C7" =E4 z |"^4." _E6 C2 |"Bb" D2 _E2"Bb7" F2 _A2 | %23
w: I fall in love a- gain.|_ _|||
w: once a- gain you are mine.|_ _|||
w: the two of us are one.|_ _|||
w: ||rives, I've|giv- en up on|
w: ||||
"Eb" B8 |] %24
w: |
w: |
w: |
w: love.|
w: |

